X: 4
T: Kansas City
R: hornpipe
M: 4/4
L: 1/8
K: Dmaj
AG|:F2 F2 FEFA|FE D2 D2 FA|AB B2 AF F2|FE D2 E2 AG|
F2 F2 FEFA|FE D2 D2 FA|df f2 a3f|1gf d2 d2 AG:|2gfd2 d2dA||
|:def2 a2fa|abb2 affa|eff2 affa|fed2 e2ag|
efaf gefd|edB2 BAAF|ABde faba|1fed2 d2dA:|2fed2 d2BA||


Tune 8755	Setting 8755

